X:269
T:Ghostrider jig from Olivia
S:Olivia Hivon
R:jig
M:6/8
L:1/8
K:Amaj
AEG Aed | BcA BAB | ABA aAg | f3 fef | ace fce | BcA BFA | EFA BAB | ced cAF |
AEG Aed | BcA BAB | ABA aAg | f3 fef | ecd e2A | fAg a3 | Bdc BAB | cAG A3 ||
f3 f2g | a3 a2b | c'3 c'2 c' | b3 b3| f3 f2g | a3 agf | ece ace  | gce   Bce
f3 f2g | a3 a2b | c'3 c'2 c' | b3 b3| c'2 b2 a2 | a2 g2 f2 | efe aec | BAG A3 ||
